<?xml version="1.0" encoding="UTF-8"?>
<map version="1.10" tiledversion="1.12.0" orientation="orthogonal" renderorder="right-down" width="20" height="24" tilewidth="32" tileheight="32" infinite="0" nextlayerid="3" nextobjectid="36">
 <tileset firstgid="1" source="Eda.tsx"/>
 <tileset firstgid="217" source="pub.tsx"/>
 <layer id="1" name="Tile Layer 1" width="20" height="24">
  <data encoding="csv">
32,33,34,35,217,218,219,220,32,33,34,35,20,21,22,23,20,21,22,23,
50,51,52,53,221,222,223,224,50,51,52,53,38,39,40,41,38,39,40,41,
68,69,70,71,225,226,227,228,68,69,70,71,56,57,58,59,56,57,58,59,
86,87,88,89,229,230,231,232,86,87,88,89,74,75,76,77,74,75,76,77,
20,21,22,23,26,27,28,29,20,21,22,23,128,129,130,131,128,129,130,131,
21,22,23,22,44,45,46,47,23,23,23,41,146,147,148,149,146,147,148,149,
21,22,23,22,62,63,64,65,41,41,41,23,164,165,166,167,164,165,166,167,
20,21,22,23,80,81,82,83,59,59,59,41,182,183,184,185,182,183,184,185,
156,157,158,159,128,129,130,131,32,33,34,35,59,59,41,41,41,59,41,23,
174,175,176,177,146,147,148,149,50,51,52,53,77,77,59,59,59,23,59,23,
192,193,194,195,164,165,166,167,68,69,70,71,75,76,77,77,77,41,77,23,
210,211,212,213,182,183,184,185,86,87,88,89,20,74,75,76,77,59,77,41,
156,157,158,159,128,129,130,131,156,157,158,159,156,157,158,159,23,23,77,59,
174,175,176,177,146,147,148,149,174,175,176,177,174,175,176,177,41,41,23,23,
192,193,194,195,164,165,166,167,192,193,194,195,192,193,194,195,59,59,41,41,
210,211,212,213,182,183,184,185,210,211,212,213,210,211,212,213,20,20,20,20,
156,157,158,159,128,129,130,131,20,21,22,23,156,157,158,159,156,157,158,159,
174,175,176,177,146,147,148,149,38,39,40,41,174,175,176,177,174,175,176,177,
192,193,194,195,164,165,166,167,56,57,58,59,192,193,194,195,192,193,194,195,
210,211,212,213,182,183,184,185,74,75,76,77,210,211,212,213,210,211,212,213,
156,157,158,159,156,157,158,159,156,157,158,159,156,157,158,159,156,157,158,159,
174,175,176,177,174,175,176,177,174,175,176,177,174,175,176,177,174,175,176,177,
192,193,194,195,192,193,194,195,192,193,194,195,192,193,194,195,192,193,194,195,
210,211,212,213,210,211,212,213,210,211,212,213,210,211,212,213,210,211,212,213
</data>
 </layer>
 <objectgroup id="2" name="Mapa">
  <object id="4" name="Pub" x="128" y="0" width="128" height="128"/>
  <object id="6" name="square" x="128" y="128" width="128" height="128"/>
  <object id="7" name="rich_block" x="0" y="0" width="128" height="128"/>
  <object id="8" name="blacksmith" x="0" y="128" width="128" height="128"/>
  <object id="9" name="poor_block" x="256" y="0" width="128" height="128"/>
  <object id="10" name="market" x="256" y="128" width="128" height="128"/>
  <object id="11" name="slums" x="256" y="256" width="128" height="128"/>
  <object id="12" name="path_i" x="128" y="256" width="128" height="128"/>
  <object id="13" name="path_ii" x="128" y="384" width="128" height="128"/>
  <object id="14" name="path_iii" x="128" y="512" width="128" height="128"/>
  <object id="15" name="forest_i" x="0" y="256" width="128" height="128"/>
  <object id="16" name="forest_ii" x="0" y="384" width="128" height="128"/>
  <object id="17" name="forest_iii" x="0" y="512" width="128" height="128"/>
  <object id="18" name="forest_iv" x="0" y="640" width="128" height="128"/>
  <object id="19" name="forest_v" x="128" y="640" width="128" height="128"/>
  <object id="20" name="forest_vi" x="256" y="640" width="128" height="128"/>
  <object id="21" name="forest_vii" x="384" y="640" width="128" height="128"/>
  <object id="22" name="forest_viii" x="512" y="640" width="128" height="128"/>
  <object id="23" name="forest_ix" x="512" y="512" width="128" height="128"/>
  <object id="24" name="forest_x" x="384" y="512" width="128" height="128"/>
  <object id="25" name="forest_xii" x="384" y="384" width="128" height="128"/>
  <object id="26" name="forest_xi" x="256" y="384" width="128" height="128"/>
  <object id="27" name="field_i" x="384" y="256" width="128" height="128"/>
  <object id="28" name="field_ii" x="512" y="256" width="128" height="128"/>
  <object id="29" name="field_iii" x="384" y="0" width="128" height="128"/>
  <object id="30" name="field_iv" x="512" y="0" width="128" height="128"/>
  <object id="31" name="field_v" x="512" y="384" width="128" height="128"/>
  <object id="32" name="path_iv" x="384" y="128" width="128" height="128"/>
  <object id="33" name="path_v" x="512" y="128" width="128" height="128"/>
  <object id="34" name="church" x="256" y="512" width="128" height="128"/>
  <object id="35" x="-192" y="128"/>
 </objectgroup>
</map>
